X:249
T: Jacobslied
N: A0610A
O: Europa, Mitteleuropa, Deutschland
N: Forster, Frische Liedlein V. 1556 No. 44.
R: Romanze, Ballade, Lied, religioeses Lied
M: 4/1
L: 1/2
K: D
 |  | =F2F2G2G2 | A2A2A2z
A | A2A2A2A2 | G2=F2G2z
G | A2A2=F2F2 | D4=C4
A2A2A2A2 | G2=F2G2z
A | =F2E2D2F2 | EDE2D4

